build/svg/cmd/lc_inserttreecontrol.svg

<svg xmlns="http://www.w3.org/2000/svg" viewBox="0 0 24 24"><path opacity=".6" stroke="#000" stroke-width="2" stroke-linejoin="round" d="M14 3h7v7h-7z"/><path fill="#fff" d="M14 3h7v7h-7z"/><path opacity=".6" stroke="#000" stroke-width="2" stroke-linejoin="round" d="M14 14h7v7h-7z"/><path fill="#fff" d="M14 14h7v7h-7z"/><path opacity=".6" stroke="#000" stroke-width="2" stroke-linejoin="round" d="M3 3h7v7H3z"/><path fill="#fff" d="M3 3h7v7H3z"/><path d="M10 7v1h4V7h-4zm-1 3v7h5v-1h-4v-6H9z" fill="#6d6d6d"/></svg>

<?xml version="1.0" encoding="UTF-8" standalone="no"?>
<svg
   xmlns:dc="http://purl.org/dc/elements/1.1/"
   xmlns:cc="http://creativecommons.org/ns#"
   xmlns:rdf="http://www.w3.org/1999/02/22-rdf-syntax-ns#"
   xmlns:svg="http://www.w3.org/2000/svg"
   xmlns="http://www.w3.org/2000/svg"
   xmlns:sodipodi="http://sodipodi.sourceforge.net/DTD/sodipodi-0.dtd"
   xmlns:inkscape="http://www.inkscape.org/namespaces/inkscape"
   viewBox="0 0 24 24"
   version="1.1"
   id="svg4"
   sodipodi:docname="lc_inserttreecontrol.svg"
   inkscape:export-filename="/home/jupiter007/Libreoffice yaru theme fullcolor/build/cmd/lc_inserttreecontrol.png"
   inkscape:export-xdpi="95"
   inkscape:export-ydpi="95"
   inkscape:version="0.92.5 (2060ec1f9f, 2020-04-08)">
  <metadata
     id="metadata10">
    <rdf:RDF>
      <cc:Work
         rdf:about="">
        <dc:format>image/svg+xml</dc:format>
        <dc:type
           rdf:resource="http://purl.org/dc/dcmitype/StillImage" />
      </cc:Work>
    </rdf:RDF>
  </metadata>
  <defs
     id="defs8" />
  <sodipodi:namedview
     pagecolor="#ffffff"
     bordercolor="#666666"
     borderopacity="1"
     objecttolerance="10"
     gridtolerance="10"
     guidetolerance="10"
     inkscape:pageopacity="0"
     inkscape:pageshadow="2"
     inkscape:window-width="1920"
     inkscape:window-height="1011"
     id="namedview6"
     showgrid="true"
     inkscape:zoom="19.666667"
     inkscape:cx="4.8377137"
     inkscape:cy="13.329474"
     inkscape:window-x="0"
     inkscape:window-y="32"
     inkscape:window-maximized="1"
     inkscape:current-layer="svg4">
    <inkscape:grid
       type="xygrid"
       id="grid817" />
  </sodipodi:namedview>
  <rect
     style="opacity:0.6;fill:#000000;fill-opacity:1;stroke:#000000;stroke-width:2;stroke-linejoin:round;stroke-miterlimit:4;stroke-dasharray:none;stroke-opacity:1"
     id="rect819"
     width="7"
     height="7"
     x="14"
     y="3" />
  <rect
     y="3"
     x="14"
     height="7"
     width="7"
     id="rect821"
     style="opacity:1;fill:#ffffff;fill-opacity:1;stroke:none;stroke-width:2;stroke-linejoin:round;stroke-miterlimit:4;stroke-dasharray:none;stroke-opacity:1" />
  <rect
     y="14"
     x="14"
     height="7"
     width="7"
     id="rect823"
     style="opacity:0.6;fill:#000000;fill-opacity:1;stroke:#000000;stroke-width:2;stroke-linejoin:round;stroke-miterlimit:4;stroke-dasharray:none;stroke-opacity:1" />
  <rect
     style="opacity:1;fill:#ffffff;fill-opacity:1;stroke:none;stroke-width:2;stroke-linejoin:round;stroke-miterlimit:4;stroke-dasharray:none;stroke-opacity:1"
     id="rect825"
     width="7"
     height="7"
     x="14"
     y="14" />
  <rect
     style="opacity:0.6;fill:#000000;fill-opacity:1;stroke:#000000;stroke-width:2;stroke-linejoin:round;stroke-miterlimit:4;stroke-dasharray:none;stroke-opacity:1"
     id="rect827"
     width="7"
     height="7"
     x="3"
     y="3" />
  <rect
     y="3"
     x="3"
     height="7"
     width="7"
     id="rect829"
     style="opacity:1;fill:#ffffff;fill-opacity:1;stroke:none;stroke-width:2;stroke-linejoin:round;stroke-miterlimit:4;stroke-dasharray:none;stroke-opacity:1" />
  <path
     style="opacity:1;fill:#6d6d6d;fill-opacity:1;stroke:none;stroke-width:2.82842731;stroke-linejoin:round;stroke-miterlimit:4;stroke-dasharray:none;stroke-opacity:1"
     d="M 10 7 L 10 8 L 14 8 L 14 7 L 10 7 z M 9 10 L 9 16 L 9 17 L 14 17 L 14 16 L 10 16 L 10 10 L 9 10 z "
     id="rect831" />
</svg>
